svgs/zerodha_coin.svg

﻿<?xml version="1.0" encoding="utf-8"?>
<svg version="1.1" viewBox="0 0 192 192" width="192" height="192" style="stroke:none;stroke-linecap:butt;stroke-linejoin:miter;stroke-width:1;stroke-dasharray:none;fill:#000000;fill-opacity:1;fill-rule:evenodd" font-family="Arial" font-size="15px" xmlns:xlink="http://www.w3.org/1999/xlink" xmlns="http://www.w3.org/2000/svg">
  <path id="Substract" d="M109.9662,37.3375C108.9114,37.3216 107.9712,37.3632 107.1686,37.4477C100.7481,38.1236 98.3696,42.1523 98.2312,44.7142C98.0928,47.276 98.8712,52.9515 105.5085,54.1883C112.1458,55.4251 120.8022,55.1527 129.7677,64.0289C138.7331,72.9052 138.7264,84.1413 140.0464,88.8613C141.3664,93.5813 145.6385,95.2677 148.3155,95.0466C150.9925,94.8255 155.9682,93.7499 155.7375,84.424C155.5069,75.0982 153.1862,63.3713 141.0043,51.1066C130.3452,40.375 117.3498,37.4486 109.9662,37.3375zM96,16C139.8867,16 176,52.1133 176,96C176,139.8867 139.8867,176 96,176C52.1133,176 16,139.8867 16,96C16,52.1133 52.1133,16 96,16z" />
</svg>

<svg xmlns="http://www.w3.org/2000/svg" width="192" height="192" font-family="Arial" font-size="15" style="stroke:none;stroke-linecap:butt;stroke-linejoin:miter;stroke-width:1;stroke-dasharray:none;fill:#000;fill-opacity:1;fill-rule:evenodd" viewBox="0 0 192 192"><path d="M109.966 37.338a23.616 23.616 0 0 0-2.797.11c-6.42.676-8.8 4.704-8.938 7.266-.138 2.562.64 8.238 7.278 9.474 6.637 1.237 15.293.965 24.259 9.84 8.965 8.877 8.958 20.113 10.278 24.833 1.32 4.72 5.593 6.407 8.27 6.186 2.677-.221 7.652-1.297 7.422-10.623-.231-9.326-2.552-21.053-14.734-33.317-10.659-10.732-23.654-13.658-31.038-13.77M96 16c43.887 0 80 36.113 80 80s-36.113 80-80 80-80-36.113-80-80 36.113-80 80-80"/></svg>
